X: 9808
T: Denis Murphy's
R: polka
M: 2/4
K: Dmajor
|:f>e d>B|AD FD|GE e>d|cB c/B/A|
ff/e/ d/e/d/B/|AD FE/D/|GE e>g|1 fd d2:|2 fd d/e/d/B/||
|:Af f/e/f|Ag g/f/g|Af f2|e/f/e/d/ Bd|
Af f/e/f|Ag g/f/g/a/|ba fa/f/|1 ed d/e/d/B/:|2 ed d2||

